Newaita-dark/actions/24/im-user.svg

<svg height="24" viewBox="0 0 24 24" width="24" xmlns="http://www.w3.org/2000/svg"><g fill="#e0e0e0"><path d="m11.90625 2.171875c-2.746094 0-4.960938 2.214844-4.960938 4.960937 0 2.75 2.214844 4.960938 4.960938 4.960938 2.75 0 4.960938-2.210938 4.960938-4.960938 0-2.746093-2.210938-4.960937-4.960938-4.960937zm0 1.984375c1.648438 0 2.976562 1.328125 2.976562 2.976562 0 1.648438-1.328124 2.976563-2.976562 2.976563s-2.976562-1.328125-2.976562-2.976563c0-1.648437 1.328124-2.976562 2.976562-2.976562zm0 0"/><path d="m15.378906 12.597656c-.125 0-.25.023438-.367187.070313-2.308594.921875-3.898438.921875-6.210938 0-.210937-.085938-.449219-.09375-.664062-.027344-.664063.210937-1.859375.464844-2.960938 1.054687-1.097656.589844-2.195312 1.726563-2.195312 3.359376v1.488281h-.003907v1.488281c0 1.101562.886719 1.988281 1.984376 1.988281h13.890624c1.101563 0 1.988282-.886719 1.988282-1.988281v-1.488281h-.007813v-1.488281c0-1.632813-1.089843-2.769532-2.191406-3.363282s-2.300781-.847656-2.96875-1.050781c-.097656-.03125-.195313-.046875-.292969-.042969zm.027344 2.023438c.761719.222656 1.628906.449218 2.296875.808594.757813.410156 1.15625.78125 1.15625 1.625v1.488281h-.007813v.496093c0 .550782-.441406.992188-.992187.992188h-11.90625c-.550781 0-.992187-.441406-.992187-.992188v-.496093h-.003907v-1.488281c0-.84375.394531-1.210938 1.152344-1.617188.667969-.359375 1.535156-.585938 2.300781-.816406 2.398438.882812 4.597656.882812 6.996094 0zm0 0"/></g></svg>

<?xml version="1.0" encoding="UTF-8"?>
<svg xmlns="http://www.w3.org/2000/svg" xmlns:xlink="http://www.w3.org/1999/xlink" width="24px" height="24px" viewBox="0 0 24 24" version="1.1">
<g id="surface1">
<path style=" stroke:none;fill-rule:nonzero;fill:rgb(87.843138%,87.843138%,87.843138%);fill-opacity:1;" d="M 11.90625 2.171875 C 9.160156 2.171875 6.945312 4.386719 6.945312 7.132812 C 6.945312 9.882812 9.160156 12.09375 11.90625 12.09375 C 14.65625 12.09375 16.867188 9.882812 16.867188 7.132812 C 16.867188 4.386719 14.65625 2.171875 11.90625 2.171875 Z M 11.90625 4.15625 C 13.554688 4.15625 14.882812 5.484375 14.882812 7.132812 C 14.882812 8.78125 13.554688 10.109375 11.90625 10.109375 C 10.257812 10.109375 8.929688 8.78125 8.929688 7.132812 C 8.929688 5.484375 10.257812 4.15625 11.90625 4.15625 Z M 11.90625 4.15625 "/>
<path style=" stroke:none;fill-rule:nonzero;fill:rgb(87.843138%,87.843138%,87.843138%);fill-opacity:1;" d="M 15.378906 12.597656 C 15.253906 12.597656 15.128906 12.621094 15.011719 12.667969 C 12.703125 13.589844 11.113281 13.589844 8.800781 12.667969 C 8.589844 12.582031 8.351562 12.574219 8.136719 12.640625 C 7.472656 12.851562 6.277344 13.105469 5.175781 13.695312 C 4.078125 14.285156 2.980469 15.421875 2.980469 17.054688 L 2.980469 18.542969 L 2.976562 18.542969 L 2.976562 20.03125 C 2.976562 21.132812 3.863281 22.019531 4.960938 22.019531 L 18.851562 22.019531 C 19.953125 22.019531 20.839844 21.132812 20.839844 20.03125 L 20.839844 18.542969 L 20.832031 18.542969 L 20.832031 17.054688 C 20.832031 15.421875 19.742188 14.285156 18.640625 13.691406 C 17.539062 13.097656 16.339844 12.84375 15.671875 12.640625 C 15.574219 12.609375 15.476562 12.59375 15.378906 12.597656 Z M 15.40625 14.621094 C 16.167969 14.84375 17.035156 15.070312 17.703125 15.429688 C 18.460938 15.839844 18.859375 16.210938 18.859375 17.054688 L 18.859375 18.542969 L 18.851562 18.542969 L 18.851562 19.039062 C 18.851562 19.589844 18.410156 20.03125 17.859375 20.03125 L 5.953125 20.03125 C 5.402344 20.03125 4.960938 19.589844 4.960938 19.039062 L 4.960938 18.542969 L 4.957031 18.542969 L 4.957031 17.054688 C 4.957031 16.210938 5.351562 15.84375 6.109375 15.4375 C 6.777344 15.078125 7.644531 14.851562 8.410156 14.621094 C 10.808594 15.503906 13.007812 15.503906 15.40625 14.621094 Z M 15.40625 14.621094 "/>
</g>
</svg>
